images_sukapura_svg/cmd/lc_closedocs.svg

<svg viewBox="0 0 24 24" xmlns="http://www.w3.org/2000/svg" xmlns:xlink="http://www.w3.org/1999/xlink"><linearGradient id="a" gradientUnits="userSpaceOnUse" x1="11" x2="11" y1="7" y2="21"><stop offset="0" stop-color="#68caf8"/><stop offset=".5" stop-color="#70cef9"/><stop offset=".71428573" stop-color="#79d3fb"/><stop offset=".9285714" stop-color="#67c1ed"/><stop offset="1" stop-color="#67bfea"/></linearGradient><g fill-rule="evenodd" transform="translate(1.021484)"><path d="m15 4.5c-.265199.0000511-.519519.1054326-.707031.2929688l-3.707031 1.7070312h-8.085938c-.5522619.0000552-1.0214292.4477381-1.0214844 1l.0214844 13h1 17 .978516l.021484-11v-4c-.000055-.5522619-.447738-.9999448-1-1z" fill="#94ddff" stroke="#2bbcff"/><path d="m1.4785156 20.5h1 17.0644534.935547l.021484-11c-.021484-.5.298232-.9921291-.744141-.992188l-16.7666402-.0009478c-1.0211864-.0000577-1.2541689.0003958-1.5126567.9911818z" fill="url(#a)" stroke="#15b0f5"/><g fill="#3bc1f1"><path d="m1.4368875 19.000786-.4583719-.000786v.5l.460325.000834h19.0039064c.132308-.0017 1.023959.01237.535769-.000834v-.5l-.537722.000786z"/><path d="m.9785156 20 .0136715.5059h.4550781 19.1640628l.367188-.0059-.0293-.500041-.503906.002h-19.16406z"/></g></g></svg>

<?xml version="1.0" encoding="UTF-8" standalone="no"?>
<svg
   xmlns:dc="http://purl.org/dc/elements/1.1/"
   xmlns:cc="http://creativecommons.org/ns#"
   xmlns:rdf="http://www.w3.org/1999/02/22-rdf-syntax-ns#"
   xmlns:svg="http://www.w3.org/2000/svg"
   xmlns="http://www.w3.org/2000/svg"
   xmlns:sodipodi="http://sodipodi.sourceforge.net/DTD/sodipodi-0.dtd"
   xmlns:inkscape="http://www.inkscape.org/namespaces/inkscape"
   viewBox="0 0 24 24"
   version="1.1"
   id="svg30"
   sodipodi:docname="lc_closedocs.svg"
   inkscape:version="0.92.3 (2405546, 2018-03-11)"
   inkscape:export-filename="/home/rizmut/Documents/Rizmut/Github/libreoffice-style-sukapura/images_sukapura/cmd/lc_closedocs.png"
   inkscape:export-xdpi="96"
   inkscape:export-ydpi="96">
  <metadata
     id="metadata36">
    <rdf:RDF>
      <cc:Work
         rdf:about="">
        <dc:format>image/svg+xml</dc:format>
        <dc:type
           rdf:resource="http://purl.org/dc/dcmitype/StillImage" />
        <dc:title></dc:title>
      </cc:Work>
    </rdf:RDF>
  </metadata>
  <defs
     id="defs34">
    <radialGradient
       id="b-3"
       cx="10.994179"
       cy="4.4284401"
       gradientTransform="matrix(1.4,4e-8,-1e-8,1.2,-4.39185,-2.314129)"
       gradientUnits="userSpaceOnUse"
       r="5">
      <stop
         offset="0"
         stop-color="#d7d7d7"
         id="stop9" />
      <stop
         offset=".49894297"
         stop-color="#f7f7f7"
         id="stop11" />
      <stop
         offset="1"
         stop-color="#fff"
         id="stop13" />
    </radialGradient>
    <linearGradient
       id="a-8"
       gradientUnits="userSpaceOnUse"
       x1="10"
       x2="11.500001"
       y1="4"
       y2="2.4999993">
      <stop
         offset="0"
         stop-color="#fff"
         id="stop2-0" />
      <stop
         offset=".77967989"
         stop-color="#f1f1f1"
         id="stop4-5" />
      <stop
         offset="1"
         stop-color="#d5d5d5"
         id="stop6-6" />
    </linearGradient>
    <linearGradient
       gradientTransform="translate(75,-7)"
       id="a-367"
       gradientUnits="userSpaceOnUse"
       x1="14"
       x2="13.79661"
       y1="22"
       y2="2.1355929">
      <stop
         offset="0"
         stop-color="#0040dd"
         id="stop2206" />
      <stop
         offset="1"
         stop-color="#0a84ff"
         id="stop2208" />
    </linearGradient>
  </defs>
  <sodipodi:namedview
     pagecolor="#ffffff"
     bordercolor="#666666"
     borderopacity="1"
     objecttolerance="10"
     gridtolerance="10"
     guidetolerance="10"
     inkscape:pageopacity="0"
     inkscape:pageshadow="2"
     inkscape:window-width="1366"
     inkscape:window-height="685"
     id="namedview32"
     showgrid="true"
     inkscape:zoom="16"
     inkscape:cx="2.782317"
     inkscape:cy="11.073265"
     inkscape:window-x="0"
     inkscape:window-y="0"
     inkscape:window-maximized="1"
     inkscape:current-layer="svg30">
    <inkscape:grid
       type="xygrid"
       id="grid857"
       spacingx="0.5"
       spacingy="0.5"
       empspacing="2" />
  </sodipodi:namedview>
  <linearGradient
     id="a"
     gradientUnits="userSpaceOnUse"
     x1="11"
     x2="11"
     y1="7"
     y2="21">
    <stop
       offset="0"
       stop-color="#68caf8"
       id="stop2" />
    <stop
       offset=".5"
       stop-color="#70cef9"
       id="stop4" />
    <stop
       offset=".71428573"
       stop-color="#79d3fb"
       id="stop6" />
    <stop
       offset=".9285714"
       stop-color="#67c1ed"
       id="stop8" />
    <stop
       offset="1"
       stop-color="#67bfea"
       id="stop10" />
  </linearGradient>
  <clipPath
     id="b">
    <path
       d="m192.5 69.5h62v39h-62z"
       id="path13" />
  </clipPath>
  <g
     id="g26"
     transform="translate(1.0214844)"
     style="fill-rule:evenodd">
    <path
       d="m 15,4.5 c -0.265199,5.11e-5 -0.519519,0.1054326 -0.707031,0.2929688 L 10.585938,6.5 H 2.5 c -0.5522619,5.52e-5 -1.0214292,0.4477381 -1.0214844,1 L 1.5,20.5 h 1 17 0.978516 L 20.5,9.5 v -4 c -5.5e-5,-0.5522619 -0.447738,-0.9999448 -1,-1 z"
       id="path16"
       inkscape:connector-curvature="0"
       style="fill:#94ddff;stroke:#2bbcff"
       sodipodi:nodetypes="ccccccccccccc" />
    <path
       d="m 1.4785156,20.5 h 1 17.0644534 0.935547 L 20.5,9.5 C 20.478516,9 20.798232,8.5078709 19.755859,8.507812 L 2.9892188,8.5068642 C 1.9680324,8.5068065 1.7350499,8.50726 1.4765621,9.498046 Z"
       id="path18"
       inkscape:connector-curvature="0"
       style="fill:url(#a);stroke:#15b0f5"
       sodipodi:nodetypes="cccccsscc" />
    <g
       id="g24"
       style="fill:#3bc1f1">
      <path
         d="M 1.4368875,19.000786 0.9785156,19 v 0.5 l 0.460325,8.34e-4 H 20.442747 c 0.132308,-0.0017 1.023959,0.01237 0.535769,-8.34e-4 V 19 l -0.537722,7.86e-4 z"
         id="path20"
         inkscape:connector-curvature="0"
         sodipodi:nodetypes="ccccccccc" />
      <path
         d="m 0.9785156,20 0.0136715,0.5059 H 1.4472652 20.611328 l 0.367188,-0.0059 -0.0293,-0.500041 -0.503906,0.002 H 1.28125 Z"
         id="path22"
         inkscape:connector-curvature="0"
         sodipodi:nodetypes="ccccccccc" />
    </g>
  </g>
</svg>
